X: 42844
T: Wild Geese, The
R: waltz
M: 3/4
K: Gmajor
GA|(B2 B)>B B/A/G/E/|(A2 A)>B B/A/G/E/|D2 DE/F/ GA/B/|A>B (G2 G)A/B/|
(c2 c)>B A>B|c<A BB/A/ G>A|B<G A2 e2|d>B (A2 A)A/B/|
(c2 c)>B A>B|c<A BB/A/ G>A|B<G A2 A>B|c/B/A/G/ (E2 E)G/A/|
(B2 B)>B B/A/G/E/|(A2 A)>B B/A/G/E/|(D2 D)E/F/ GA/B/|A>B (G2 G)G/A/||
B>A G>A B>G|A>G E>G A>E|G>E D>E G>A|(G4 G)A/B/|
c>B A>B c>A|B>A G>A B>G|A2 ef/e/ d>B|(A4 A)A/B/|
c>B A>B c>A|B>A G>A B>G|A>B c/B/A/G/ EG/A/|
(B2 B)>B B/A/G/E/|(A2 A)>B B/A/G/E/|D2 DE/F/ GA/B/|A>B (G2 G)>e||
d>B G3e|d>B G3e|d>B c3e|d>B c3e|
d>c B3e|d>c B3e|d>B A3e|d>B A3e|
d>B c3e|d>c B3e|d>B A2 AA/B/|c/B/A/G/ (E2 E)G/A/|
(B2 B)>B B/A/G/E/|(A2 A)>B B/A/G/E/|(D2 D)E/F/ GA/B/|A>B (G2 G2)||

